App/assets/icons/calendar-days.svg

<?xml version="1.0" encoding="UTF-8"?>
<svg id="Livello_1" xmlns="http://www.w3.org/2000/svg" version="1.1" viewBox="0 0 32 32">
  <!-- Generator: Adobe Illustrator 29.5.1, SVG Export Plug-In . SVG Version: 2.1.0 Build 141)  -->
  <defs>
    <style>
      .st0 {
        fill: #fff;
      }
    </style>
  </defs>
  <path class="st0" d="M10,1v4h12V1h2v4h6v26H2V5h6V1h2ZM28,7H4v4h24v-4ZM28,13h-6v4h6v-4ZM28,19h-6v4h6v-4ZM28,25h-6v4h6v-4ZM20,23v-4h-8v4h8ZM12,25v4h8v-4h-8ZM10,23v-4h-6v4h6ZM4,25v4h6v-4h-6ZM4,17h6v-4h-6v4ZM12,17h8v-4h-8v4Z"/>
</svg>

<svg width="32" height="32" viewBox="0 0 32 32" fill="none" xmlns="http://www.w3.org/2000/svg">
<rect x="0.5" y="0.5" width="31" height="31" stroke="black"/>
<path d="M10 1V5H22V1H24V5H30V31H2V5H8V1H10ZM28 7H4V11H28V7ZM28 13H22V17H28V13ZM28 19H22V23H28V19ZM28 25H22V29H28V25ZM20 23V19H12V23H20ZM12 25V29H20V25H12ZM10 23V19H4V23H10ZM4 25V29H10V25H4ZM4 17H10V13H4V17ZM12 17H20V13H12V17Z" fill="white"/>
</svg>
